X: 3
T:The Trip to Tsawwassen
M:4/4
L:1/8
Q:200
C:Copyright 1995 Michael Robinson
R:Reel
N:Tsawwassen is where the car ferry to Vancouver Island leaves from.
K:D
A,/2B,/2C|"D"DEFD "G"GABG|"A"ABcA "D"d2dB|A2FD B,DA,D|A,DFD "A"E2 A,/2B,
/2C|
"D"DEFD "G"GABG|"A"ABcA "D"dAFD |"G"GABG "D"FGAd|"A"D2FE "D"D2:|
de|"Bm"fBBA BcdB|"F#m"cAFA "Bm"B2de|fBBA BcdB|"F#m"cAFA "Bm"B2dB|
"D"Addc defd|"G"g2bg "D"afdA|"G"GABG "D"FGAd|"A"D2FE "D"D2:|
